svgs/thin/arrow-right.svg

<svg xmlns="http://www.w3.org/2000/svg" viewBox="0 0 448 512"><!--! Font Awesome Pro 6.0.0-alpha3 by @fontawesome - https://fontawesome.com License - https://fontawesome.com/license (Commercial License) --><path d="M275.1 79.82l170.5 170.5c3.14 3.14 3.14 8.226 0 11.37l-170.5 170.5c-3.14 3.14-8.226 3.14-11.37 0c-3.14-3.14-3.14-8.226 0-11.37l156.8-156.8H8.037c-4.427 0-8.036-3.593-8.036-8.036s3.609-8.039 8.036-8.039h412.5l-156.8-156.8c-3.14-3.14-3.14-8.226 0-11.37C266.9 76.68 272 76.68 275.1 79.82z"/></svg>

<svg xmlns="http://www.w3.org/2000/svg" viewBox="0 0 448 512"><!-- Font Awesome Pro 6.0.0-alpha2 by @fontawesome - https://fontawesome.com License - https://fontawesome.com/license (Commercial License) --><path d="M275.148 79.822L445.645 250.318C448.784 253.457 448.784 258.543 445.645 261.683L275.148 432.179C272.009 435.318 266.923 435.318 263.783 432.179C260.644 429.039 260.644 423.953 263.783 420.814L420.56 264.037H8.037C3.61 264.037 0 260.443 0 256C0 251.558 3.61 247.963 8.037 247.963H420.56L263.783 91.187C260.644 88.047 260.644 82.961 263.783 79.822C266.925 76.68 272.007 76.68 275.148 79.822Z"/></svg>
